icons/database.svg

<svg width="24" height="24" viewBox="0 0 24 24" fill="none" xmlns="http://www.w3.org/2000/svg">
<path fill-rule="evenodd" clip-rule="evenodd" d="M6.72848 5.84239C5.3605 6.52639 4.79993 7.33255 4.79993 8C4.79993 8.66745 5.3605 9.47361 6.72848 10.1576C8.05161 10.8192 9.93197 11.25 12.0499 11.25C14.1679 11.25 16.0482 10.8192 17.3714 10.1576C17.6767 10.0049 17.9418 9.84618 18.1695 9.68424C18.1977 9.6234 18.2347 9.56536 18.2805 9.51192C18.3845 9.39056 18.5189 9.31061 18.6628 9.27367C19.1045 8.83656 19.2999 8.3941 19.2999 8C19.2999 7.33255 18.7394 6.52639 17.3714 5.84239C16.0482 5.18083 14.1679 4.75 12.0499 4.75C9.93197 4.75 8.05161 5.18083 6.72848 5.84239ZM18.0422 11.4992C18.3142 11.3632 18.5769 11.2136 18.8248 11.0507C19.089 11.3955 19.2 11.7226 19.2 12C19.2 12.4044 18.9643 12.9142 18.3619 13.4306C17.1475 14.4714 14.7496 15.25 11.95 15.25C9.34698 15.25 7.09131 14.577 5.81126 13.6459C5.78607 13.599 5.75547 13.554 5.71938 13.5119C5.62527 13.4021 5.50632 13.3262 5.37796 13.2854C4.8934 12.8194 4.69995 12.3664 4.69995 12C4.69995 11.6992 4.83034 11.34 5.14515 10.9632C5.43055 11.1603 5.73758 11.3392 6.05766 11.4992C7.62997 12.2854 9.7496 12.75 12.0499 12.75C14.3503 12.75 16.4699 12.2854 18.0422 11.4992ZM4.04703 14.0598C3.53217 13.4657 3.19995 12.7639 3.19995 12C3.19995 11.2424 3.52675 10.5458 4.03442 9.95481C3.57822 9.38779 3.29993 8.73324 3.29993 8C3.29993 6.45831 4.53022 5.26447 6.05766 4.50075C7.62997 3.7146 9.7496 3.25 12.0499 3.25C14.3503 3.25 16.4699 3.7146 18.0422 4.50075C19.5696 5.26447 20.7999 6.45831 20.7999 8C20.7999 8.78561 20.4805 9.4809 19.965 10.075C20.4154 10.6394 20.7 11.2931 20.7 12C20.7 12.7132 20.4103 13.3724 19.9528 13.9402C20.4677 14.5343 20.7999 15.2361 20.7999 16C20.7999 17.539 19.5622 18.7324 18.0353 19.4958C16.4615 20.2828 14.3421 20.75 12.0499 20.75C9.75773 20.75 7.63836 20.2828 6.06452 19.4958C4.53761 18.7324 3.29993 17.539 3.29993 16C3.29993 15.2868 3.58955 14.6277 4.04703 14.0598ZM5.18593 15.0367C4.91388 15.3866 4.79993 15.7188 4.79993 16C4.79993 16.661 5.36225 17.4676 6.73534 18.1542C8.06149 18.8173 9.94212 19.25 12.0499 19.25C14.1577 19.25 16.0384 18.8173 17.3645 18.1542C18.7376 17.4676 19.2999 16.661 19.2999 16C19.2999 15.6955 19.1664 15.3313 18.8432 14.9495C17.2069 16.0802 14.6592 16.75 11.95 16.75C9.311 16.75 6.82537 16.1146 5.18593 15.0367Z" fill="black"/>
</svg>

<svg xmlns="http://www.w3.org/2000/svg" fill="none" viewBox="0 0 24 24">
  <path fill="#000" fill-rule="evenodd" d="M6.728 5.842C5.361 6.526 4.8 7.332 4.8 8c0 .667.56 1.474 1.928 2.158 1.324.661 3.204 1.092 5.322 1.092s3.998-.43 5.321-1.092c.306-.153.57-.312.799-.474a.748.748 0 0 1 .493-.41c.442-.437.637-.88.637-1.274 0-.667-.56-1.474-1.929-2.158-1.323-.661-3.203-1.092-5.321-1.092s-3.998.43-5.322 1.092ZM18.042 11.5a7.68 7.68 0 0 0 .783-.448c.264.345.375.672.375.949 0 .404-.236.914-.838 1.43-1.214 1.041-3.612 1.82-6.412 1.82-2.603 0-4.859-.673-6.139-1.604a.754.754 0 0 0-.433-.36c-.485-.467-.678-.92-.678-1.286 0-.3.13-.66.445-1.037.286.197.593.376.913.536 1.572.786 3.692 1.251 5.992 1.251s4.42-.465 5.992-1.25ZM4.047 14.06C3.532 13.467 3.2 12.765 3.2 12c0-.758.327-1.454.834-2.045C3.578 9.388 3.3 8.733 3.3 8c0-1.542 1.23-2.736 2.758-3.5C7.63 3.716 9.75 3.25 12.05 3.25s4.42.465 5.992 1.25C19.57 5.265 20.8 6.459 20.8 8c0 .786-.32 1.48-.835 2.075.45.564.735 1.218.735 1.925 0 .713-.29 1.372-.747 1.94.515.594.847 1.296.847 2.06 0 1.539-1.238 2.732-2.765 3.496-1.573.787-3.693 1.254-5.985 1.254-2.292 0-4.412-.467-5.985-1.254C4.538 18.732 3.3 17.539 3.3 16c0-.713.29-1.372.747-1.94Zm1.139.978c-.272.35-.386.682-.386.963 0 .661.562 1.468 1.935 2.154 1.326.663 3.207 1.096 5.315 1.096 2.108 0 3.988-.433 5.314-1.096C18.738 17.468 19.3 16.661 19.3 16c0-.305-.134-.669-.457-1.05-1.636 1.13-4.184 1.8-6.893 1.8-2.639 0-5.125-.635-6.764-1.713Z" clip-rule="evenodd"/>
</svg>
